X:1
T:He Is Able to Deliver Thee
T:William Augustine Ogden, 1887
T:He Is Able to Deliver Thee
T:Public Domain
T:Public Domain
C:William Augustine Ogden, 1887
Z:Public Domain
%%score ( 1 2 ) ( 3 4 )
L:1/8
M:4/4
K:Bb
V:1 treble 
V:2 treble 
V:3 bass 
V:4 bass 
V:1
 [DF]>[DF] | [DB]2 [DB]2 (DE) [FB]>[Gc] | [FB]2 [FA]2 [FA]2 [FA]>[FB] | %3
w: 1.~’Tis the|grand- est theme * through the|es rung; ’Tis the grand-|
w: 2.~’Tis the|grand- est theme * in the|or main; ’Tis the grand-|
w: 3.~’Tis the|grand- est theme, * let the|ings roll, To the guilt-|
 [FA]2 [EG]2 [EG]2 [EG]>[EB] | [EG]2 [DF]2 [DF]2 [DF]>[DB] | [Fd]2 [Fd]2 [Fd]2 [Ge]>[Fd] | %6
w: est theme for a mor-|tal tongue; ’Tis the grand-|est theme that the world|
w: est theme for a mor-|tal strain; ’Tis the grand-|est theme, tell the world|
w: y heart, to the sin-|ful soul; Look to God|in faith, He will make|
 [Ec]2 [EG]2 (cB)([FA][EG]) | [DF]2 [DF]2 [CF][CF] [EG]>[EA] | [Ec]>[DB] [DB]4 ||"^Refrain" F>F | %10
w: e’er sung, “Our * God *|a- ble to de- li- ver|thee.” * *||
w: a- gain, “Our * God *|a- ble to de- liv- er|thee.” He is|a- ble|
w: thee whole, “Our * God *|a- ble to de- liv- er|thee.” * *||
 [DB]4- [DB][Fd] [Ec]>[DB] | [EB]>[EA] [EA]4 [EA]>D | [Ec-]4 [Ec][Ge] [Fd]>[Ec] | %13
w: |||
w: liv- * er thee, He|is a- ble to de-|liv- er thee; Though by|
w: |||
 [Ec]>[DB] [DB]4 [DB]>[Ec] | [Fd]2 [F_Af]2 [FAf]2 [Fd]>[Fd] | [Ec]2 [EG]2 (cB)([FA][EG]) | %16
w: |||
w: sin op- pressed, go to|Him for rest; “Our God|is a- ble * to *|
w: |||
 [DF]2 [DF]2 [CF][CF] [EG]>[EA] | [Ec]>[DB] [DB]4 |] %18
w: ||
w: liv- er thee.” * * *||
w: ||
V:2
 x2 | x4 B2 x2 | x8 | x8 | x8 | x8 | x4 G2 x2 | x8 | x6 || F>F | x8 | x8 | x8 | x8 | x8 | %15
w: |ag-|||||is|||||||||
w: |earth|||||is|||to de-||||||
w: |tid-|||||is|||||||||
 x4 G2 x2 | x8 | x6 |] %18
w: |||
w: de-|||
w: |||
V:3
 [B,,B,]>[B,,B,] | [B,,F,]2 [B,,F,]2 (B,,C,) [D,B,]>[E,E] | [F,D]2 [F,C]2 [F,C]2 [F,C]>[F,D] | %3
 [F,C]2 [F,C]2 [F,C]2 [F,A,]>[F,A,] | [B,,B,]2 [B,,B,]2 [B,,B,]2 [B,,B,]>[B,,B,] | %5
 [B,,B,]2 [B,,B,]2 [B,,B,]2 [B,,B,]>[B,,B,] | [E,G,]2 [E,C]2 [E,E]2 [E,B,]2 | %7
 [F,B,]2 [F,B,]2 [F,A,][F,A,] [F,C]>F, | [B,,F,]>[B,,B,] [B,,B,]4 || [B,,F,]>F, | %10
 ([B,,F,]>[B,,F,] [B,,F,]>[B,,F,] [B,,F,]>)[B,,F,] [B,,F,]>[B,,B,] | %11
 [F,C]>[F,C] [F,C]4 [F,C]>[F,B,] | %12
 ([B,,F,]>[B,,F,] [B,,F,]>[B,,F,] [B,,F,]>)[B,,F,] [B,,F,]>[B,,F,] | %13
 [B,,F,]>[B,,B,] [B,,B,]4 [B,,B,]>[B,,B,] | [B,,B,]2 [B,,D]2 [B,,D]2 [B,,B,]>[B,,B,] | %15
 [E,G,]2 [E,C]2 [E,E]2 [E,B,]2 | [F,B,]2 [F,B,]2 [F,A,][F,A,] [F,C]>F, | %17
 [B,,F,]>[B,,B,] [B,,B,]4 |] %18
V:4
 x2 | x4 B,2 x2 | x8 | x8 | x8 | x8 | x8 | x8 | x6 || x2 | x8 | x8 | x8 | x8 | x8 | x8 | x8 | x6 |] %18

